remix/Media/speaker-3-line.svg

<svg viewBox="0 0 24 24" fill="currentColor" xmlns="http://www.w3.org/2000/svg"><path d="M5 5V19H19V5H5ZM4 3H20C20.5523 3 21 3.44772 21 4V20C21 20.5523 20.5523 21 20 21H4C3.44772 21 3 20.5523 3 20V4C3 3.44772 3.44772 3 4 3ZM7 8C6.44772 8 6 7.55228 6 7C6 6.44772 6.44772 6 7 6C7.55228 6 8 6.44772 8 7C8 7.55228 7.55228 8 7 8ZM17 8C16.4477 8 16 7.55228 16 7C16 6.44772 16.4477 6 17 6C17.5523 6 18 6.44772 18 7C18 7.55228 17.5523 8 17 8ZM17 18C16.4477 18 16 17.5523 16 17C16 16.4477 16.4477 16 17 16C17.5523 16 18 16.4477 18 17C18 17.5523 17.5523 18 17 18ZM7 18C6.44772 18 6 17.5523 6 17C6 16.4477 6.44772 16 7 16C7.55228 16 8 16.4477 8 17C8 17.5523 7.55228 18 7 18ZM12 15C13.6569 15 15 13.6569 15 12C15 10.3431 13.6569 9 12 9C10.3431 9 9 10.3431 9 12C9 13.6569 10.3431 15 12 15ZM12 17C9.23858 17 7 14.7614 7 12C7 9.23858 9.23858 7 12 7C14.7614 7 17 9.23858 17 12C17 14.7614 14.7614 17 12 17ZM12 13C11.4477 13 11 12.5523 11 12C11 11.4477 11.4477 11 12 11C12.5523 11 13 11.4477 13 12C13 12.5523 12.5523 13 12 13Z"/></svg>

<svg viewBox="0 0 24 24" xmlns="http://www.w3.org/2000/svg"><path fill="none" d="M0 0h24v24H0Z"/><path d="M5 5v14h14V5H5ZM4 3h16v0c.55 0 1 .44 1 1v16 0c0 .55-.45 1-1 1H4v0c-.56 0-1-.45-1-1V4v0c0-.56.44-1 1-1Zm3 5v0c-.56 0-1-.45-1-1 0-.56.44-1 1-1v0c.55 0 1 .44 1 1 0 .55-.45 1-1 1Zm10 0v0c-.56 0-1-.45-1-1 0-.56.44-1 1-1v0c.55 0 1 .44 1 1 0 .55-.45 1-1 1Zm0 10v0c-.56 0-1-.45-1-1 0-.56.44-1 1-1v0c.55 0 1 .44 1 1 0 .55-.45 1-1 1ZM7 18v0c-.56 0-1-.45-1-1 0-.56.44-1 1-1v0c.55 0 1 .44 1 1 0 .55-.45 1-1 1Zm5-3v0c1.65 0 3-1.35 3-3 0-1.66-1.35-3-3-3v0c-1.66 0-3 1.34-3 3 0 1.65 1.34 3 3 3Zm0 2v0c-2.77 0-5-2.24-5-5 0-2.77 2.23-5 5-5v0c2.76 0 5 2.23 5 5 0 2.76-2.24 5-5 5Zm0-4v0c-.56 0-1-.45-1-1 0-.56.44-1 1-1v0c.55 0 1 .44 1 1 0 .55-.45 1-1 1Z"/></svg>
